X: 398
T: Bir Nigâh Et Kahrile Bakma
C: Zeki Arif Ataergin
O: Turkey
F: http://compmusic.upf.edu/node/140
N: saba--sarki--aksak--bir_nigah--zeki_arif_ataergin
N: makam= saba
N: form= sarki
N: usul= aksak = 9/8
M: 9/8
L: 1/16
K: C _2/4B _3/4d  
Q: 1/4=108
%%MIDI tuningsystem comma53
c3B zA2B cdBd c2{d}cd (3dcB | A4ze2fed cBcd ef{f}ed  | 
w:  Ah  *  bir  ni gâh  *  *  *  et   |  *  kahr_ i le  *  *  *  sen   | 
d{e}d/c/cB zc2a gfed cdef ga | g/f/e/d/ c/B/czd2dd{e}d/c/ cBc3BA2  | 
w:  *  *  *  *  *  *  bak ma  Al *  *  *  lah   |  *  *  *  *  *  *  *  aş kı na   | 
A{B}A2B d3/2c/BA f3/2e/dc cdcB e/d/c | \
w:  Al *  *  *  lah  *  *  *  aş *  *  *  *  *  *  *  kı  | 
c6 G2AA2Bc3dcB  | 
w:  na   SAZ  | 
c4 z2c=d e3{e}d (3ggfe_3/4d cd | d{e}d/c/ cBzc {d}cdde dcc3/2B/ AcBA  | 
w:  *  Sa rı  giy *  *  me   |  *  *  *  *  *  *  bir  *  *  da ha  *  *  *  gül   | 
B4 zB2B BB2d c2d/c/B A2 | f/e/f/g/ f/e/dcd2dd{e}d/c/ cBdc BAG2  | 
w:  *  tak ma  Al *  *  lah   |  *  *  *  *  *  *  *  *  aş kı na    | 
A{B}A2B cdec cd/c/B/A/G/A/ d2{d}cB BA | \
w:  Al *  *  *  lah  *  *  *  aş *  *  *  *  *  *  *  *  *  *  kı  | 
A6 ABcd cBc3BAB  | 
w:  na   SAZ  | 
c4 z2c=d e3{e}d (3ggfe_3/4d cd | d{e}d/c/ cBzc {d}cdde dcc3/2B/ AcBA  | 
w:  *  Sa rı  giy *  *  me   |  *  *  *  *  *  *  bir  *  *  da ha  *  *  *  gül   | 
B4 zB2B BB2d c2d/c/B A2 | f/e/f/g/ f/e/dcd2dd{e}d/c/ cBdc BAG2  | 
w:  *  tak ma  Al *  *  lah   |  *  *  *  *  *  *  *  *  aş kı na    | 
A{B}A2B cdec cd/c/B/A/G/A/ d2{d}cB BA | \
w:  Al *  *  *  lah  *  *  *  aş *  *  *  *  *  *  *  *  *  *  kı  | 
A6 =deed cde3dg^2/4f/e/  | 
w:  na   SAZ  | 
e4 z=d2e e3d e3/2d/cd e^3/4f | ga g/^3/4f/e/=d/e_1/4b/b/ aa/g/g{a}g/^2/4f2e/e3de/d/c/d/  | 
w:  *  Kim se yi  *  gön  |  *  *  *  *  *  *  *  lün  *  *  mi *  sa *  *  *  *  li   | 
e4 zf2f fgfe fga_b ag | f{g}f/e/ =d2zf2ff/e/f/g/ feef f/e/_3/4dc2  | 
w:  *  yak ma  Al *  *  *  lah   |  *  *  *  *  *  aş kı na    | 
d/c/Bcd efge e2dc cdcB e/d/c | c6 G2A{B}A2Bc3dcB  | 
w:  Al *  *  *  *  lah  *  *  *  aş *  *  *  *  *  *  kı  |  na   SAZ  | 
c4 z2c=d e3{e}d (3ggfe_3/4d cd | d{e}d/c/ cBzc {d}cdde dcc3/2B/ AcBA  | 
w:  *  Sa rı  giy *  *  me   |  *  *  *  *  *  *  bir  *  *  da ha  *  *  *  gül   | 
B4 zB2B BB2d c2d/c/B A2 | f/e/f/g/ f/e/dcd2dd{e}d/c/ cBdc BAG2  | 
w:  *  tak ma  Al *  *  lah   |  *  *  *  *  *  *  *  *  aş kı na    | 
A{B}A2B cdec cd/c/B/A/G/A/ d2{d}cB BA | \
w:  Al *  *  *  lah  *  *  *  aş *  *  *  *  *  *  *  *  *  *  kı  | 
A6 ABcd cBc3BAB  | 
w:  na   SAZ  | 
c4 z2c=d e3{e}d (3ggfe_3/4d cd | d{e}d/c/ cBzc {d}cdde dcc3/2B/ AcBA  | 
w:  *  Sa rı  giy *  *  me   |  *  *  *  *  *  *  bir  *  *  da ha  *  *  *  gül   | 
B4 zB2B BB2d c2d/c/B A2 | f/e/f/g/ f/e/dcd2dd{e}d/c/ cBdc BAG2  | 
w:  *  tak ma  Al *  *  lah   |  *  *  *  *  *  *  *  *  aş kı na    | 
A{B}A2B cdec cd/c/B/A/G/A/ d2{d}cB BA | \
w:  Al *  *  *  lah  *  *  *  aş *  *  *  *  *  *  *  *  *  *  kı  | 
A6 |
w:  na    | 


